X:1
T:Tibbie Dunbar
M:6/8
L:1/8
K:F
 z4 z f| cAA A3/2 G/2 F| cAA A2 f| cAA AGA| FDD D2 f/2d/2| c3/2 B/2 A A3/2 G/2 F|\
 cAA A2G/2-F/2| G3/2 A/2 B AGA| FDD D2 c| f3/2 e/2 f gfg| a3/2 f/2 d cAF|\
 f3/2 e/2 fg-f g| afd dfg| a3/2 f/2 a geg| fde f2e/2-d/2| cAF G3/2B/2-A/2 G/2|\
 FDD D2 z|

